X: 21096
T: Kalyana
R: jig
M: 6/8
K: Dmajor
|:~F2(d c)AF|~A2B AFE|~F2(d c)A(d|c)Ad edc|
FFd cAF|~A3 AFE|1 Fdd dcd|efd BAG:|2 Fdd def|efd cBA||
dee ede|(ef)d dcd|eze ede|fga fed|
~e3 ede|(ef)d fga|(fg)e edB|dze dBA|
dee ede|~f2d dcd|eze ede|gd fd gd|
~e3 ede|(ef)d fga|(fg)e edB|dBe dBG||

